icon-themes/breeze_svg/cmd/lc_diatime.svg

<svg viewBox="0 0 24 24" xmlns="http://www.w3.org/2000/svg"><path d="m3 4v12h18v-12zm1 1h16v10h-16zm8 1c-2.20914 0-4 1.79086-4 4s1.79086 4 4 4 4-1.79086 4-4-1.79086-4-4-4zm0 1c1.65685 0 3 1.34314 3 3 0 1.65685-1.34315 3-3 3-1.65686 0-3-1.34315-3-3 0-1.65686 1.34314-3 3-3zm-1 1v3h1 2v-1h-2v-2zm-1 9v2h-1v1h6v-1h-1v-2h-1v2h-2v-2z" fill="#4d4d4d"/></svg>

<svg xmlns="http://www.w3.org/2000/svg" viewBox="0 0 24 24">
 <path 
     style="fill:#4d4d4d" 
     d="M 3 4 L 3 16 L 21 16 L 21 4 L 3 4 z M 4 5 L 20 5 L 20 15 L 4 15 L 4 5 z M 12 6 C 9.79086 6 8 7.79086 8 10 C 8 12.20914 9.79086 14 12 14 C 14.20914 14 16 12.20914 16 10 C 16 7.79086 14.20914 6 12 6 z M 12 7 C 13.65685 7 15 8.34314 15 10 C 15 11.65685 13.65685 13 12 13 C 10.34314 13 9 11.65685 9 10 C 9 8.34314 10.34314 7 12 7 z M 11 8 L 11 11 L 12 11 L 14 11 L 14 10 L 12 10 L 12 8 L 11 8 z M 10 17 L 10 19 L 9 19 L 9 20 L 15 20 L 15 19 L 14 19 L 14 17 L 13 17 L 13 19 L 11 19 L 11 17 L 10 17 z "
     />
 </svg>
